icons/find-replace-fill.svg

<svg xmlns="http://www.w3.org/2000/svg" width="24" height="24" fill="none"><g clip-path="url(#a)"><g><path fill="#121212" d="M18.031 16.617L22.314 20.899L20.899 22.314L16.617 18.031C15.0237 19.3082 13.042 20.0029 11 20C6.032 20 2 15.968 2 11C2 6.032 6.032 2 11 2C15.968 2 20 6.032 20 11C20.0029 13.042 19.3082 15.0237 18.031 16.617ZM16.659 9C16.2453 7.82985 15.4789 6.81679 14.4654 6.1004C13.4519 5.38401 12.2411 4.99956 11 5C7.685 5 5 7.685 5 11H7C7.00021 10.3067 7.18059 9.62529 7.52345 9.02267C7.86631 8.42005 8.35988 7.91686 8.95578 7.56245C9.55168 7.20803 10.2295 7.01455 10.9227 7.00098C11.6159 6.9874 12.3007 7.15419 12.91 7.485L12 9H16.659ZM17 11H15C14.9998 11.6933 14.8194 12.3747 14.4766 12.9773C14.1337 13.58 13.6401 14.0831 13.0442 14.4376C12.4483 14.792 11.7705 14.9854 11.0773 14.999C10.3841 15.0126 9.69932 14.8458 9.09 14.515L10 13H5.341C5.75471 14.1702 6.52112 15.1832 7.53463 15.8996C8.54814 16.616 9.75887 17.0004 11 17C14.315 17 17 14.315 17 11Z"/></g></g><defs><clipPath id="a"><rect width="24" height="24" fill="white"/></clipPath></defs></svg>

<svg width="24" height="24" fill="none" xmlns="http://www.w3.org/2000/svg"><g clip-path="url(#a)"><path d="m18.031 16.617 4.283 4.282-1.415 1.415-4.282-4.283A8.96 8.96 0 0 1 11 20c-4.968 0-9-4.032-9-9s4.032-9 9-9 9 4.032 9 9a8.96 8.96 0 0 1-1.969 5.617ZM16.659 9A6 6 0 0 0 11 5c-3.315 0-6 2.685-6 6h2a4.001 4.001 0 0 1 5.91-3.515L12 9h4.659ZM17 11h-2a4.001 4.001 0 0 1-5.91 3.515L10 13H5.341A6 6 0 0 0 11 17c3.315 0 6-2.685 6-6Z" /></g><defs><clipPath id="a"><path fill="#fff" d="M0 0h24v24H0z"/></clipPath></defs></svg>
